src/pos-icons/tab-minus.svg

<svg height="24" viewBox="0 0 24 24" width="24" xmlns="http://www.w3.org/2000/svg"><path d="m3 3a2 2 0 0 0 -2 2v14a2 2 0 0 0 2 2h18a2 2 0 0 0 2-2v-14a2 2 0 0 0 -2-2zm0 2h10v4h8v10h-18zm4 8v2h8v-2z"/></svg>

<?xml version="1.0" encoding="UTF-8"?><!DOCTYPE svg PUBLIC "-//W3C//DTD SVG 1.1//EN" "http://www.w3.org/Graphics/SVG/1.1/DTD/svg11.dtd"><svg xmlns="http://www.w3.org/2000/svg" xmlns:xlink="http://www.w3.org/1999/xlink" version="1.1" id="mdi-tab-minus" width="24" height="24" viewBox="0 0 24 24"><path d="M3,3A2,2 0 0,0 1,5V19A2,2 0 0,0 3,21H21A2,2 0 0,0 23,19V5A2,2 0 0,0 21,3H3M3,5H13V9H21V19H3V5M7,13V15H15V13H7Z" /></svg>
